svg/NEPAnode-EnergyInfrastructure/PumpedStorage.svg

<?xml version="1.0" encoding="UTF-8" standalone="no"?>
<!-- Created with Inkscape (http://www.inkscape.org/) -->

<svg
   xmlns:dc="http://purl.org/dc/elements/1.1/"
   xmlns:cc="http://creativecommons.org/ns#"
   xmlns:rdf="http://www.w3.org/1999/02/22-rdf-syntax-ns#"
   xmlns:svg="http://www.w3.org/2000/svg"
   xmlns="http://www.w3.org/2000/svg"
   xmlns:sodipodi="http://sodipodi.sourceforge.net/DTD/sodipodi-0.dtd"
   xmlns:inkscape="http://www.inkscape.org/namespaces/inkscape"
   version="1.1"
   width="250"
   height="250"
   viewBox="0 0 0.34722222 0.34722222"
   id="svg2"
   inkscape:version="0.48.4 r9939"
   sodipodi:docname="PumpedStorage.svg">
  <sodipodi:namedview
     pagecolor="#ffffff"
     bordercolor="#666666"
     borderopacity="1"
     objecttolerance="10"
     gridtolerance="10"
     guidetolerance="10"
     inkscape:pageopacity="0"
     inkscape:pageshadow="2"
     inkscape:window-width="1360"
     inkscape:window-height="744"
     id="namedview9"
     showgrid="false"
     inkscape:zoom="0.944"
     inkscape:cx="125"
     inkscape:cy="125"
     inkscape:window-x="0"
     inkscape:window-y="24"
     inkscape:window-maximized="1"
     inkscape:current-layer="svg2" />
  <title
     id="title4">SVG drawing</title>
  <desc
     id="desc6">This was produced by version 4.1 of GNU libplot, a free library for exporting 2-D vector graphics.</desc>
  <metadata
     id="metadata3395">
    <rdf:RDF>
      <cc:Work
         rdf:about="">
        <dc:format>image/svg+xml</dc:format>
        <dc:type
           rdf:resource="http://purl.org/dc/dcmitype/StillImage" />
        <dc:title>SVG drawing</dc:title>
      </cc:Work>
    </rdf:RDF>
  </metadata>
  <defs
     id="defs3393" />
  <g
     style="font-size:0.0555556px;font-style:normal;font-variant:normal;font-weight:normal;font-stretch:normal;line-height:125%;letter-spacing:0px;word-spacing:0px;fill:#000000;fill-opacity:1;stroke:none;font-family:Energy Infrastructure;-inkscape-font-specification:Energy Infrastructure"
     id="text7140">
    <path
       d="M 0.17455524,0.00313689 C 0.19816952,0.00313723 0.22040649,0.00766334 0.24126622,0.01671523 0.2621254,0.02576777 0.28022984,0.03796859 0.29557958,0.05331771 0.31092866,0.06866741 0.32312948,0.08677185 0.33218206,0.10763107 0.34123391,0.12849076 0.34576002,0.15072773 0.3457604,0.17434204 0.34576002,0.19795669 0.34123391,0.22019366 0.33218206,0.24105302 0.32312948,0.26191258 0.31092866,0.28001702 0.29557958,0.29536638 0.28022984,0.31071584 0.2621254,0.32291666 0.24126622,0.33196886 0.22040649,0.34102109 0.19816952,0.3455472 0.17455524,0.3455472 0.15094056,0.3455472 0.12870359,0.34102109 0.10784427,0.33196886 0.08698467,0.32291666 0.06888024,0.31071584 0.05353091,0.29536638 0.03818141,0.28001702 0.0259806,0.26191258 0.01692843,0.24105302 0.00787616,0.22019366 0.00335005,0.19795669 0.00335009,0.17434204 0.00335005,0.15072773 0.00787616,0.12849076 0.01692843,0.10763107 0.0259806,0.08677185 0.03818141,0.06866741 0.05353091,0.05331771 0.06888024,0.03796859 0.08698467,0.02576777 0.10784427,0.01671523 0.12870359,0.00766334 0.15094056,0.00313723 0.17455524,0.00313689 M 0.09839847,0.25345063 C 0.10036621,0.25108928 0.10115336,0.24872783 0.10075992,0.24636628 0.10075979,0.24400493 0.10016942,0.24184027 0.09898883,0.23987229 0.09820155,0.23751095 0.09702083,0.23534629 0.09544665,0.2333783 0.09387223,0.23141054 0.09288829,0.22963946 0.09249484,0.22806504 0.09052684,0.22176796 0.08973969,0.21783222 0.09013339,0.21625779 0.09092042,0.21468362 0.09092042,0.21389647 0.09013339,0.21389634 0.08934612,0.21389647 0.08777182,0.21547077 0.08541049,0.21861924 0.0834425,0.22176796 0.08147463,0.22550692 0.07950686,0.22983613 0.07753888,0.23377199 0.07616137,0.23810131 0.07537433,0.24282411 0.07458707,0.24715353 0.07537422,0.2506957 0.07773578,0.25345063 0.08049069,0.25659932 0.08383607,0.25817362 0.08777194,0.25817353 0.09210114,0.25817362 0.09564331,0.25659932 0.09839847,0.25345063 M 0.28436269,0.20681199 C 0.27727803,0.20208923 0.27176798,0.19520167 0.26783254,0.18614929 0.26389649,0.17670366 0.26035432,0.16666751 0.25720601,0.1560408 0.25405712,0.1450209 0.25090853,0.13400081 0.24776021,0.1229805 0.24461133,0.11156705 0.24028201,0.10133411 0.23477223,0.09228164 0.22926192,0.0828361 0.221784,0.07516139 0.21233845,0.0692575 0.20328599,0.06335415 0.19147875,0.06040234 0.17691669,0.06040206 L 0.17691669,0.07102859 0.17691669,0.07161895 0.17691669,0.11943832 0.15566364,0.11943832 0.15566364,0.1418721 C 0.15330201,0.14147873 0.14739838,0.14128194 0.13795276,0.14128174 0.12890037,0.14088837 0.1192578,0.14206909 0.10902499,0.14482391 0.09918549,0.14718556 0.09052684,0.15210524 0.08304904,0.15958298 0.07557101,0.16706108 0.07242241,0.17827796 0.07360324,0.19323365 L 0.10312137,0.19323365 C 0.10312123,0.18418158 0.10548268,0.17788439 0.11020572,0.17434204 0.11532205,0.17040647 0.12083209,0.16824181 0.12673587,0.16784805 0.13303291,0.16706108 0.13893653,0.16725787 0.14444675,0.16843842 0.14995662,0.16961932 0.15369558,0.17040647 0.15566364,0.17079987 L 0.15566364,0.29064348 0.2005312,0.29064348 0.2005312,0.12711303 0.22060353,0.09228164 C 0.22808119,0.10133411 0.23359124,0.1123542 0.23713368,0.12534195 0.24106916,0.13833013 0.24480812,0.1513181 0.24835057,0.16430588 0.25189246,0.17729402 0.25622178,0.18910126 0.26133855,0.19972763 0.26645473,0.2103543 0.27412943,0.21783222 0.28436269,0.22216141 L 0.28436269,0.20681199 M 0.19344685,0.11943832 0.17927815,0.11943832 0.17927815,0.07220931 C 0.18675585,0.07260316 0.19324983,0.07398067 0.19876011,0.07634185 0.20426993,0.07830999 0.20918961,0.0812618 0.21351918,0.08519729 L 0.19344685,0.11943832"
       style="font-size:0.59036261px"
       id="path2987" />
  </g>
</svg>

<svg xmlns="http://www.w3.org/2000/svg" width="250" height="250" viewBox="0 0 0.34722222 0.34722222"><path d="m.175.003c.024 0 .046.005.067.014.021.009.039.021.054.037.015.015.028.033.037.054.009.021.014.043.014.067 0 .024-.005.046-.014.067-.009.021-.021.039-.037.054-.015.015-.033.028-.054.037-.021.009-.043.014-.067.014-.024 0-.046-.005-.067-.014-.021-.009-.039-.021-.054-.037-.015-.015-.028-.033-.037-.054-.009-.021-.014-.043-.014-.067 0-.024.005-.046.014-.067.009-.021.021-.039.037-.054.015-.015.033-.028.054-.037.021-.009.043-.014.067-.014m-.076.25c.002-.002.003-.005.002-.007 0-.002-.0001-.005-.002-.006-.0001-.002-.002-.005-.004-.006-.002-.002-.003-.004-.003-.005-.002-.006-.003-.001-.002-.012.0001-.002.0001-.002 0-.002-.0001 0-.002.002-.005.005-.002.003-.004.007-.006.011-.002.004-.003.008-.004.013-.0001.004 0 .008.002.011.003.003.006.005.001.005.004 0 .008-.002.011-.005m.186-.047c-.007-.005-.013-.012-.017-.021-.004-.009-.007-.019-.011-.03-.003-.011-.006-.022-.009-.033-.003-.011-.007-.022-.013-.031-.006-.009-.013-.017-.022-.023-.009-.006-.021-.009-.035-.009v.011.048h-.021v.022c-.002 0-.008-.0001-.018-.0001-.009 0-.019.0001-.029.004-.001.002-.018.007-.026.015-.007.007-.011.019-.009.034h.03c0-.009.002-.015.007-.019.005-.004.011-.006.017-.006.006-.0001.012-.0001.018.0001.006.0001.009.002.011.002v.12h.045v-.164l.02-.035c.007.009.013.02.017.033.004.013.008.026.011.039.004.013.008.025.013.035.005.011.013.018.023.022v-.015m-.091-.087h-.014v-.047c.007 0 .014.002.019.004.006.002.001.005.015.009l-.02.034"/></svg>
